!!!COM: Daser, Ludwig
!!!CDT: ~1526-1589/03/27
!!!OPR: Missa Preter rerum
!!!ONM: 4
!!!OTL: Sanctus
!!!AGN: Mass; Sanctus
!!!SCT: Das1002d
!!!SCA: Das1002d
!!!voices-OPR: 6
!!!voices: 6
**kern	**text	**kern	**text	**kern	**text	**kern	**text	**kern	**text	**kern	**text
*staff6	*staff6	*staff5	*staff5	*staff4	*staff4	*staff3	*staff3	*staff2	*staff2	*staff1	*staff1
*Ivox	*	*Ivox	*	*Ivox	*	*Ivox	*	*Ivox	*	*Ivox	*
*I"Bassus2	*	*I"Bassus1	*	*I"Tenor2	*	*I"Tenor1	*	*I"Contratenor	*	*I"Discantus	*
*I'B2	*	*I'B1	*	*I'T2	*	*I'T1	*	*I'Ct	*	*I'D	*
*>[A,B,C,D]	*>[A,B,C,D]	*>[A,B,C,D]	*>[A,B,C,D]	*>[A,B,C,D]	*>[A,B,C,D]	*>[A,B,C,D]	*>[A,B,C,D]	*>[A,B,C,D]	*>[A,B,C,D]	*>[A,B,C,D]	*>[A,B,C,D]
*>A	*>A	*>A	*>A	*>A	*>A	*>A	*>A	*>A	*>A	*>A	*>A
*clefF4	*	*clefF4	*	*clefGv2	*	*clefGv2	*	*clefGv2	*	*clefG2	*
*k[b-]	*	*k[b-]	*	*k[b-]	*	*k[b-]	*	*k[b-]	*	*k[b-]	*
*M2/1	*	*M2/1	*	*M2/1	*	*M2/1	*	*M2/1	*	*M2/1	*
*met(C|)	*	*met(C|)	*	*met(C|)	*	*met(C|)	*	*met(C|)	*	*met(C|)	*
!!section: Sanctus
!!!OMD: Sanctus
=1-	=1-	=1-	=1-	=1-	=1-	=1-	=1-	=1-	=1-	=1-	=1-
0r	.	0r	.	0r	.	0r	.	1.G	San-	[0g	San-
.	.	.	.	.	.	.	.	2A	.	.	.
=2	=2	=2	=2	=2	=2	=2	=2	=2	=2	=2	=2
0r	.	0r	.	0r	.	0r	.	1B-	.	0g]	.
.	.	.	.	.	.	.	.	1c	.	.	.
=3	=3	=3	=3	=3	=3	=3	=3	=3	=3	=3	=3
1.GG	San-	0r	.	0r	.	0r	.	2B-	.	[0g	-ctus,
.	.	.	.	.	.	.	.	2G	.	.	.
.	.	.	.	.	.	.	.	2B-	.	.	.
2AA	.	.	.	.	.	.	.	2c	.	.	.
=4	=4	=4	=4	=4	=4	=4	=4	=4	=4	=4	=4
1BB-	.	0r	.	0r	.	0r	.	1d	.	0g]	.
1C	.	.	.	.	.	.	.	1e-i	.	.	.
=5	=5	=5	=5	=5	=5	=5	=5	=5	=5	=5	=5
2BB-	.	1.GG	San-	0r	.	[0G	San-	1.d	.	0r	.
2GG	.	.	.	.	.	.	.	.	.	.	.
2BB-	.	.	.	.	.	.	.	.	.	.	.
2C	.	2AA	.	.	.	.	.	2c	.	.	.
=6	=6	=6	=6	=6	=6	=6	=6	=6	=6	=6	=6
1D	.	1BB-	.	1r	.	0G]	.	4B-	.	0r	.
.	.	.	.	.	.	.	.	4A	.	.	.
.	.	.	.	.	.	.	.	1d	.	.	.
1E-	.	1C	.	2r	.	.	.	.	.	.	.
.	.	.	.	2G	San-	.	.	2c	.	.	.
=7	=7	=7	=7	=7	=7	=7	=7	=7	=7	=7	=7
1D	.	2BB-	.	2.B-	.	[0G	-ctus,	1d	-ctus,	0r	.
.	.	2GG	.	.	.	.	.	.	.	.	.
.	.	.	.	4c	.	.	.	.	.	.	.
2GG	.	2BB-	.	2d	.	.	.	1r	.	.	.
[2C	.	2C	.	[2e-i	.	.	.	.	.	.	.
=8	=8	=8	=8	=8	=8	=8	=8	=8	=8	=8	=8
2C]	.	1D	.	2e-]	.	0G]	.	0r	.	0r	.
2BB-	.	.	.	1d	.	.	.	.	.	.	.
1C	-ctus,	1E-	.	.	.	.	.	.	.	.	.
.	.	.	.	2c	.	.	.	.	.	.	.
=9	=9	=9	=9	=9	=9	=9	=9	=9	=9	=9	=9
0r	.	1D	-ctus,	1d	-ctus,	0r	.	1f	San-	0a	San-
.	.	1r	.	2c	San-	.	.	2e	.	.	.
.	.	.	.	[2d	.	.	.	[2f	.	.	.
=10	=10	=10	=10	=10	=10	=10	=10	=10	=10	=10	=10
0r	.	0r	.	4d]	.	0r	.	4f]	.	0f	-ctus,
.	.	.	.	4c	.	.	.	4e	.	.	.
.	.	.	.	1B-	.	.	.	1d	.	.	.
.	.	.	.	4A	.	.	.	4c	.	.	.
.	.	.	.	4G	.	.	.	4B-	.	.	.
=11	=11	=11	=11	=11	=11	=11	=11	=11	=11	=11	=11
1D	San-	1F	San-	1F	-ctus,	0A	San-	1A	-ctus,	0r	.
2C	.	2E	.	2r	.	.	.	1r	.	.	.
[2D	.	[2F	.	2F	San-	.	.	.	.	.	.
=12	=12	=12	=12	=12	=12	=12	=12	=12	=12	=12	=12
4D]	.	4F]	.	2A	.	[0F	-ctus,	0r	.	0r	.
4C	.	4E	.	.	.	.	.	.	.	.	.
1BB-	.	1D	.	2B-	.	.	.	.	.	.	.
.	.	.	.	2F	.	.	.	.	.	.	.
4AA	.	4C	.	[2B-	.	.	.	.	.	.	.
4GG	.	4BB-	.	.	.	.	.	.	.	.	.
=13	=13	=13	=13	=13	=13	=13	=13	=13	=13	=13	=13
1FF	.	1C	.	2B-]	.	0F]	.	1c	San-	1r	.
.	.	.	.	2A	.	.	.	.	.	.	.
1BB-	-ctus	2BB-	-ctus,	2.B-	-ctus	.	.	2.d	.	[1b-	San-
.	.	[2B-	San-	.	.	.	.	.	.	.	.
.	.	.	.	4c	.	.	.	4e	.	.	.
=14	=14	=14	=14	=14	=14	=14	=14	=14	=14	=14	=14
0r	.	4B-]	.	2d	.	0r	.	2f	-ctus	1b-]	.
.	.	4A	.	.	.	.	.	.	.	.	.
.	.	4G	.	2B-	.	.	.	1g	Do-	.	.
.	.	4F	.	.	.	.	.	.	.	.	.
.	.	2E-	.	2e-	Do-	.	.	.	.	1b-	-ctus
.	.	[2B-	.	[2d	.	.	.	4f	.	.	.
.	.	.	.	.	.	.	.	4e	.	.	.
=15	=15	=15	=15	=15	=15	=15	=15	=15	=15	=15	=15
1r	.	2B-]	.	2d]	.	0r	.	2f	.	1b-	Do-
.	.	2G	.	2B-	.	.	.	2g	.	.	.
2r	.	4A	.	2c	.	.	.	2e	.	[1a	-mi-
.	.	4G	.	.	.	.	.	.	.	.	.
[2D	Do-	4F	.	2A	.	.	.	[2f	.	.	.
.	.	4E	.	.	.	.	.	.	.	.	.
=16	=16	=16	=16	=16	=16	=16	=16	=16	=16	=16	=16
2D]	.	2D	-ctus	2d	.	0r	.	2f]	.	0a]	.
2AA	.	1A	Do-	1c	.	.	.	4e	.	.	.
.	.	.	.	.	.	.	.	4d	.	.	.
2C	.	.	.	.	.	.	.	2e	.	.	.
2D	.	2F	.	2A	.	.	.	2f	.	.	.
=17	=17	=17	=17	=17	=17	=17	=17	=17	=17	=17	=17
2BB-	.	4G	.	2B-	.	0r	.	2d	.	[0g	-nus
.	.	4F	.	.	.	.	.	.	.	.	.
1C	.	4E	.	2G	.	.	.	1e	.	.	.
.	.	4D	.	.	.	.	.	.	.	.	.
.	.	2C	.	2c	.	.	.	.	.	.	.
2GG	.	[2G	.	[2B-	.	.	.	4d	.	.	.
.	.	.	.	.	.	.	.	4c	.	.	.
=18	=18	=18	=18	=18	=18	=18	=18	=18	=18	=18	=18
2BB-	.	2G]	.	2B-]	.	0r	.	2d	.	1g]	.
2C	.	2E	-mi-	2G	.	.	.	2e	.	.	.
2AA	-mi-	4F	-nus	2A	.	.	.	2c	.	[1f	De-
.	.	4E	.	.	.	.	.	.	.	.	.
[2BB-	-nus	4D	.	2F	.	.	.	[2d	.	.	.
.	.	4C	.	.	.	.	.	.	.	.	.
=19	=19	=19	=19	=19	=19	=19	=19	=19	=19	=19	=19
2BB-]	.	2BB-	.	1B-	.	0r	.	2d]	.	0f]	.
4AA	.	1F	De-	.	.	.	.	4c	.	.	.
4GG	.	.	.	.	.	.	.	4B-	.	.	.
1FF	.	.	.	2c	.	.	.	1A	-mi-	.	.
.	.	4E	.	[2d	.	.	.	.	.	.	.
.	.	4D	.	.	.	.	.	.	.	.	.
=20	=20	=20	=20	=20	=20	=20	=20	=20	=20	=20	=20
1C	De-	1E	.	2d]	.	1r	.	0G	-nus,	0g	-us,
.	.	.	.	2c	-mi-	.	.	.	.	.	.
1GG	-us,	1D	.	[1d	-nus,	[1B-	San-	.	.	.	.
=21	=21	=21	=21	=21	=21	=21	=21	=21	=21	=21	=21
2.G	Do-	1GG	-us,	1d]	.	1B-]	.	1r	.	1g	Do-
4F	.	.	.	.	.	.	.	.	.	.	.
2D	.	1r	.	1r	.	1B-	-ctus	2r	.	2f	-mi-
[2E-	.	.	.	.	.	.	.	[2g	Do-	[2b-	.
=22	=22	=22	=22	=22	=22	=22	=22	=22	=22	=22	=22
4E-]	.	0r	.	0r	.	1B-	Do-	4g]	.	4b-]	.
4D	.	.	.	.	.	.	.	4f	.	4cc	.
2BB-	.	.	.	.	.	.	.	2d	.	2dd	.
2C	.	.	.	.	.	[1A	-mi-	2e	.	2cc	-nus
[2D	.	.	.	.	.	.	.	[2f	.	[2a	De-
=23	=23	=23	=23	=23	=23	=23	=23	=23	=23	=23	=23
4D]	.	0r	.	1r	.	1A]	.	4f]	.	4a]	.
4C	.	.	.	.	.	.	.	4e	.	4b-	.
2AA	.	.	.	.	.	.	.	2c	.	2cc	.
2BB-	.	.	.	2r	.	[1G	-nus	2d	.	2b-	.
2C	-mi-	.	.	[2c	Do-	.	.	2e	.	[2g	.
=24	=24	=24	=24	=24	=24	=24	=24	=24	=24	=24	=24
1GG	-nus	0r	.	2c]	.	1G]	.	2.d	.	4g]	.
.	.	.	.	.	.	.	.	.	.	4a	.
.	.	.	.	2B-	-mi-	.	.	.	.	2b-	.
.	.	.	.	.	.	.	.	4e	.	.	.
2r	.	.	.	2c	-nus	[1F	De-	1f	.	2a	.
[2BB-	De-	.	.	[2d	De-	.	.	.	.	[2b-	.
=25	=25	=25	=25	=25	=25	=25	=25	=25	=25	=25	=25
2BB-]	.	0r	.	2d]	.	0F]	.	1.f	.	2b-]	.
2C	.	.	.	1c	.	.	.	.	.	4a	.
.	.	.	.	.	.	.	.	.	.	4g	.
1D	.	.	.	.	.	.	.	.	.	1f	.
.	.	.	.	2B-	.	.	.	2d	-mi-	.	.
=26	=26	=26	=26	=26	=26	=26	=26	=26	=26	=26	=26
[0C	-us,	0r	.	1c	.	[0G	-us	1e	-nus	2e	.
.	.	.	.	.	.	.	.	.	.	4c	.
.	.	.	.	.	.	.	.	.	.	4d	.
.	.	.	.	2G	.	.	.	2r	.	4e	.
.	.	.	.	.	.	.	.	.	.	4f	.
.	.	.	.	[2c	.	.	.	[2e	De-	[2g	.
=27	=27	=27	=27	=27	=27	=27	=27	=27	=27	=27	=27
0C]	.	0r	.	2c]	.	0G]	.	2e]	.	4g]	.
.	.	.	.	.	.	.	.	.	.	4c	.
.	.	.	.	4B-	.	.	.	4d	.	1f	.
.	.	.	.	4A	.	.	.	4c	.	.	.
.	.	.	.	1G	.	.	.	1c	.	.	.
.	.	.	.	.	.	.	.	.	.	2e	.
=28	=28	=28	=28	=28	=28	=28	=28	=28	=28	=28	=28
2D	De-	2r	.	0F	-us,	0r	.	2A	-us,	1f	-us
2.BB-	.	1B-	Do-	.	.	.	.	2.d	De-	.	.
.	.	.	.	.	.	.	.	.	.	1f	Sa-
4C	.	.	.	.	.	.	.	4c	.	.	.
2D	.	2A	-mi-	.	.	.	.	2A	.	.	.
=29	=29	=29	=29	=29	=29	=29	=29	=29	=29	=29	=29
2.GG	.	1G	-nus	1r	.	0r	.	2.B-	.	0g	-ba-
4AA	.	.	.	.	.	.	.	4c	.	.	.
2BB-	.	1G	De-	2r	.	.	.	2d	.	.	.
2C	.	.	.	[2c	Do-	.	.	2e	.	.	.
=30	=30	=30	=30	=30	=30	=30	=30	=30	=30	=30	=30
0FF	-us,	1.F	.	2c]	.	1r	.	2.f	.	0a	.
.	.	.	.	2c	-mi-	.	.	.	.	.	.
.	.	.	.	.	.	.	.	8eL	.	.	.
.	.	.	.	.	.	.	.	8dJ	.	.	.
.	.	.	.	2A	-nus	1F	Sa-	2c	.	.	.
.	.	4E	.	2F	De-	.	.	2d	.	.	.
.	.	4D	.	.	.	.	.	.	.	.	.
=31	=31	=31	=31	=31	=31	=31	=31	=31	=31	=31	=31
1r	.	2.C	.	0c	-us	0G	-ba-	1.e	.	0g	-oth,
.	.	4D	.	.	.	.	.	.	.	.	.
[1C	Do-	[1E	-us,	.	.	.	.	.	.	.	.
.	.	.	.	.	.	.	.	2c	.	.	.
=32	=32	=32	=32	=32	=32	=32	=32	=32	=32	=32	=32
2C]	.	1E]	.	1r	.	[0A	.	1c	-us	2r	.
2AA	-mi-	.	.	.	.	.	.	.	.	2.cc	Sa-
1AA	-nus	1r	.	1c	Sa-	.	.	1e	Sa-	.	.
.	.	.	.	.	.	.	.	.	.	4b-	.
.	.	.	.	.	.	.	.	.	.	[2a	-ba-
=33	=33	=33	=33	=33	=33	=33	=33	=33	=33	=33	=33
0D	De-	2r	.	[0d	-ba-	0A]	.	2f	.	4a]	.
.	.	.	.	.	.	.	.	.	.	4g	.
.	.	1F	Do-	.	.	.	.	2.d	-ba-	4f	.
.	.	.	.	.	.	.	.	.	.	4e	.
.	.	.	.	.	.	.	.	.	.	4f	.
.	.	.	.	.	.	.	.	4c	.	4g	.
.	.	2D	-mi-	.	.	.	.	2A	.	4a	.
.	.	.	.	.	.	.	.	.	.	4f	.
=34	=34	=34	=34	=34	=34	=34	=34	=34	=34	=34	=34
0GG	-us,	1D	-nus	0d]	.	[0G	-oth,	2B-	.	[0g	-oth,
.	.	.	.	.	.	.	.	4G	.	.	.
.	.	.	.	.	.	.	.	4A	.	.	.
.	.	1D	De-	.	.	.	.	4B-	.	.	.
.	.	.	.	.	.	.	.	4c	.	.	.
.	.	.	.	.	.	.	.	4d	.	.	.
.	.	.	.	.	.	.	.	4B-	.	.	.
=35	=35	=35	=35	=35	=35	=35	=35	=35	=35	=35	=35
1r	.	2C	-us,	[0en	.	0G]	.	[0c	-oth,	0g]	.
.	.	2.C	Do-	.	.	.	.	.	.	.	.
[1C	Do-	.	.	.	.	.	.	.	.	.	.
.	.	4D	.	.	.	.	.	.	.	.	.
.	.	4E	.	.	.	.	.	.	.	.	.
.	.	4F	.	.	.	.	.	.	.	.	.
=36	=36	=36	=36	=36	=36	=36	=36	=36	=36	=36	=36
2C]	.	2G	.	0e]	.	0r	.	0c]	.	0cc	Do-
2AA	-mi-	1A	.	.	.	.	.	.	.	.	.
1AA	-nus	.	.	.	.	.	.	.	.	.	.
.	.	2A	-mi-	.	.	.	.	.	.	.	.
=37	=37	=37	=37	=37	=37	=37	=37	=37	=37	=37	=37
0D	De-	4A	-nus	0d	-oth,	0F	Sa-	2r	.	1a	-mi-
.	.	4G	.	.	.	.	.	.	.	.	.
.	.	4F	.	.	.	.	.	1f	Do-	.	.
.	.	4E	.	.	.	.	.	.	.	.	.
.	.	[1D	.	.	.	.	.	.	.	1a	-nus
.	.	.	.	.	.	.	.	2f	-mi-	.	.
=38	=38	=38	=38	=38	=38	=38	=38	=38	=38	=38	=38
1GG	-us,	2D]	.	1r	.	0G	-ba-	1d	-nus	1b-	De-
.	.	1G	De-	.	.	.	.	.	.	.	.
[1C	Do-	.	.	[1c	Sa-	.	.	1e	De-	1g	-us
.	.	2E	.	.	.	.	.	.	.	.	.
=39	=39	=39	=39	=39	=39	=39	=39	=39	=39	=39	=39
2C]	.	0E	-us	0c]	.	[0A	.	2c	-us,	2r	.
2AA	-mi-	.	.	.	.	.	.	1e	Do-	2.cc	Sa-
1AA	-nus	.	.	.	.	.	.	.	.	.	.
.	.	.	.	.	.	.	.	.	.	4b-	.
.	.	.	.	.	.	.	.	2e	-mi-	[2a	-ba-
=40	=40	=40	=40	=40	=40	=40	=40	=40	=40	=40	=40
0D	De-	2r	.	[0d	-ba-	0A]	.	2f	-nus	4a]	.
.	.	.	.	.	.	.	.	.	.	4g	.
.	.	1F	Sa-	.	.	.	.	2.d	De-	4f	.
.	.	.	.	.	.	.	.	.	.	4e	.
.	.	.	.	.	.	.	.	.	.	4f	.
.	.	.	.	.	.	.	.	4c	.	4g	.
.	.	2D	-ba-	.	.	.	.	2A	.	4a	.
.	.	.	.	.	.	.	.	.	.	4f	.
=41	=41	=41	=41	=41	=41	=41	=41	=41	=41	=41	=41
1GG	-us	1D	-oth,	0d]	.	[0Gl	-oth.	2B-	-us	[0g	-oth.
.	.	.	.	.	.	.	.	4G	Sa-	.	.
.	.	.	.	.	.	.	.	4A	.	.	.
1GG	Sa-	2r	.	.	.	.	.	4B-	.	.	.
.	.	.	.	.	.	.	.	4c	.	.	.
.	.	2G	Sa-	.	.	.	.	4d	.	.	.
.	.	.	.	.	.	.	.	4B-	.	.	.
=42	=42	=42	=42	=42	=42	=42	=42	=42	=42	=42	=42
0C	-ba-	2.G	-ba-	0e	.	0G_	.	2c	.	0g]	.
.	.	.	.	.	.	.	.	2G	.	.	.
.	.	4F	.	.	.	.	.	.	.	.	.
.	.	2E	.	.	.	.	.	1c	-ba-	.	.
.	.	2C	.	.	.	.	.	.	.	.	.
=43	=43	=43	=43	=43	=43	=43	=43	=43	=43	=43	=43
0GGl	-oth.	0Dl	-oth.	0dl	-oth.	0G]	.	0B-l	-oth.	0gl	.
!!LO:LB:i:g=z
=44||	=44||	=44||	=44||	=44||	=44||	=44||	=44||	=44||	=44||	=44||	=44||
*>B	*>B	*>B	*>B	*>B	*>B	*>B	*>B	*>B	*>B	*>B	*>B
*clefF4	*	*clefF4	*	*clefGv2	*	*clefGv2	*	*clefGv2	*	*clefG2	*
*k[b-]	*	*k[b-]	*	*k[b-]	*	*k[b-]	*	*k[b-]	*	*k[b-]	*
*M2/1	*	*M2/1	*	*M2/1	*	*M2/1	*	*M2/1	*	*M2/1	*
*met(C|)	*	*met(C|)	*	*met(C|)	*	*met(C|)	*	*met(C|)	*	*met(C|)	*
!!section: Pleni
!!!OMD: Pleni
0r	.	0r	.	0r	.	1D	Ple-	0r	.	0r	.
.	.	.	.	.	.	2D	-ni	.	.	.	.
.	.	.	.	.	.	[2G	sunt	.	.	.	.
=45	=45	=45	=45	=45	=45	=45	=45	=45	=45	=45	=45
0r	.	0r	.	0r	.	2G]	.	0r	.	1d	Ple-
.	.	.	.	.	.	2F	.	.	.	.	.
.	.	.	.	.	.	2G	.	.	.	2d	-ni
.	.	.	.	.	.	2B-	.	.	.	[2g	sunt
=46	=46	=46	=46	=46	=46	=46	=46	=46	=46	=46	=46
0r	.	0r	.	0r	.	1A	.	0r	.	2g]	.
.	.	.	.	.	.	.	.	.	.	2f	ce-
.	.	.	.	.	.	2.G	ce-	.	.	2g	.
.	.	.	.	.	.	.	.	.	.	[2b-	.
.	.	.	.	.	.	4A	.	.	.	.	.
=47	=47	=47	=47	=47	=47	=47	=47	=47	=47	=47	=47
0r	.	0r	.	0r	.	4B-	.	0r	.	2b-]	.
.	.	.	.	.	.	4G	.	.	.	.	.
.	.	.	.	.	.	1c	.	.	.	4a	.
.	.	.	.	.	.	.	.	.	.	4g	.
.	.	.	.	.	.	.	.	.	.	2a	.
.	.	.	.	.	.	2B-	.	.	.	[2g	.
=48	=48	=48	=48	=48	=48	=48	=48	=48	=48	=48	=48
0r	.	1r	.	0r	.	1A	.	0r	.	2g]	.
.	.	.	.	.	.	.	.	.	.	2f#i	.
.	.	1GG	Ple-	.	.	[1G	-li,	.	.	2g	-li,
.	.	.	.	.	.	.	.	.	.	[2b-	.
=49	=49	=49	=49	=49	=49	=49	=49	=49	=49	=49	=49
0r	.	2GG	-ni	0r	.	0G]	.	0r	.	4b-]	.
.	.	.	.	.	.	.	.	.	.	4a	.
.	.	1C	sunt	.	.	.	.	.	.	4g	.
.	.	.	.	.	.	.	.	.	.	4f	.
.	.	.	.	.	.	.	.	.	.	2e	.
.	.	2BB-	.	.	.	.	.	.	.	2d	.
=50	=50	=50	=50	=50	=50	=50	=50	=50	=50	=50	=50
0r	.	2C	.	0r	.	2r	.	1G	Ple-	2e	.
.	.	1E-	ce-	.	.	1G	ce-	.	.	1g	.
.	.	.	.	.	.	.	.	2G	-ni	.	.
.	.	4D	.	.	.	2A	.	[2c	.	4f	.
.	.	4C	.	.	.	.	.	.	.	4e	.
=51	=51	=51	=51	=51	=51	=51	=51	=51	=51	=51	=51
0r	.	1D	.	0r	.	1F	.	2c]	.	2f	.
.	.	.	.	.	.	.	.	2B-	.	2d	li,
.	.	[1C	.	.	.	[1G	-li	2c	sunt	2r	.
.	.	.	.	.	.	.	.	[2e-	ce-	[2g	ce-
=52	=52	=52	=52	=52	=52	=52	=52	=52	=52	=52	=52
0r	.	2C]	.	0r	.	0G]	.	2e-]	.	4g]	.
.	.	.	.	.	.	.	.	.	.	4a	.
.	.	2BB-	.	.	.	.	.	1d	.	1b-	.
.	.	1E-i	.	.	.	.	.	.	.	.	.
.	.	.	.	.	.	.	.	2c	.	4a	.
.	.	.	.	.	.	.	.	.	.	4g	.
=53	=53	=53	=53	=53	=53	=53	=53	=53	=53	=53	=53
0r	.	0D	-li	0r	.	2r	.	[0d	-li	0f	-li
.	.	.	.	.	.	2.A	et	.	.	.	.
.	.	.	.	.	.	4G	.	.	.	.	.
.	.	.	.	.	.	2A	.	.	.	.	.
=54	=54	=54	=54	=54	=54	=54	=54	=54	=54	=54	=54
0r	.	1r	.	0r	.	1D	.	0d_	.	2r	.
.	.	.	.	.	.	.	.	.	.	2.a	et
.	.	2r	.	.	.	2.A	ter-	.	.	.	.
.	.	.	.	.	.	.	.	.	.	4g	.
.	.	[2D	et	.	.	.	.	.	.	2a	.
.	.	.	.	.	.	8GL	.	.	.	.	.
.	.	.	.	.	.	8AJ	.	.	.	.	.
=55	=55	=55	=55	=55	=55	=55	=55	=55	=55	=55	=55
0r	.	4D]	.	0r	.	2B-	.	0d]	.	2d	.
.	.	4C	.	.	.	.	.	.	.	.	.
.	.	2D	.	.	.	2A	.	.	.	1a	ter-
.	.	1GG	ter-	.	.	1B-	.	.	.	.	.
.	.	.	.	.	.	.	.	.	.	2g	.
=56	=56	=56	=56	=56	=56	=56	=56	=56	=56	=56	=56
0r	.	1D	-ra,	0r	.	1A	.	2r	.	1.a	.
.	.	.	.	.	.	.	.	2.d	et	.	.
.	.	1r	.	.	.	2F	.	.	.	.	.
.	.	.	.	.	.	.	.	4c	.	.	.
.	.	.	.	.	.	[2G	.	2d	.	[2b-	.
=57	=57	=57	=57	=57	=57	=57	=57	=57	=57	=57	=57
0r	.	1r	.	0r	.	2G]	.	1G	ter-	2b-]	.
.	.	.	.	.	.	4F	.	.	.	4a	.
.	.	.	.	.	.	4E	.	.	.	4g	.
.	.	2r	.	.	.	1D	-ra,	1d	.	2.f	.
.	.	[2A	et	.	.	.	.	.	.	.	.
.	.	.	.	.	.	.	.	.	.	4g	.
=58	=58	=58	=58	=58	=58	=58	=58	=58	=58	=58	=58
0r	.	4A]	.	0r	.	0r	.	2e	.	4a	.
.	.	4G	.	.	.	.	.	.	.	4b-	.
.	.	2A	.	.	.	.	.	1f	.	1a	.
.	.	1D	ter-	.	.	.	.	.	.	.	.
.	.	.	.	.	.	.	.	4e	.	4g	.
.	.	.	.	.	.	.	.	4d	.	4f	.
=59	=59	=59	=59	=59	=59	=59	=59	=59	=59	=59	=59
0r	.	1A	-ra,	0r	.	2r	.	2.c	.	1e	-ra,
.	.	.	.	.	.	2.A	et	.	.	.	.
.	.	.	.	.	.	.	.	4d	.	.	.
.	.	1r	.	.	.	.	.	4e	.	2r	.
.	.	.	.	.	.	4G	.	4f	.	.	.
.	.	.	.	.	.	2A	.	[2e	.	2c	et
=60	=60	=60	=60	=60	=60	=60	=60	=60	=60	=60	=60
0r	.	1r	.	0r	.	1D	.	4e]	.	1f	ter-
.	.	.	.	.	.	.	.	4d	.	.	.
.	.	.	.	.	.	.	.	1d	.	.	.
.	.	1AA	et	.	.	[1A	ter-	.	.	1e	.
.	.	.	.	.	.	.	.	2c#i	.	.	.
=61	=61	=61	=61	=61	=61	=61	=61	=61	=61	=61	=61
0r	.	1.D	ter-	0r	.	2A]	.	1d	-ra,	2d	-ra,
.	.	.	.	.	.	2F	.	.	.	1f	et
.	.	.	.	.	.	2F	.	2A	et	.	.
.	.	2C	.	.	.	[2G	.	2c	.	[2e	.
=62	=62	=62	=62	=62	=62	=62	=62	=62	=62	=62	=62
0r	.	2GG	.	0r	.	4G]	.	2B-	.	4e]	.
.	.	.	.	.	.	4F	.	.	.	4d	.
.	.	2BB-	.	.	.	2D	.	2G	.	1d	.
.	.	1AA	.	.	.	1E	.	1A	.	.	.
.	.	.	.	.	.	.	.	.	.	2c#i	.
=63	=63	=63	=63	=63	=63	=63	=63	=63	=63	=63	=63
0r	.	2r	.	0r	.	2D	-ra	1A	ra	[0d	ra
.	.	2.D	-glo-	.	.	2.F	glo-	.	.	.	.
.	.	.	.	.	.	.	.	1r	.	.	.
.	.	4E	.	.	.	4G	.	.	.	.	.
.	.	2F	.	.	.	2A	.	.	.	.	.
=64	=64	=64	=64	=64	=64	=64	=64	=64	=64	=64	=64
0r	.	2G	.	0r	.	2B-	.	2r	.	0d]	.
.	.	2GG	.	.	.	2G	.	2.d	glo-	.	.
.	.	1D	-ri-	.	.	1A	-ri-	.	.	.	.
.	.	.	.	.	.	.	.	4e	.	.	.
.	.	.	.	.	.	.	.	2f	.	.	.
=65	=65	=65	=65	=65	=65	=65	=65	=65	=65	=65	=65
0r	.	2E	-a	0r	.	1G	-a,	2g	.	0r	.
.	.	1G	tu-	.	.	.	.	2G	-ri-	.	.
.	.	.	.	.	.	2r	.	[1d	-a	.	.
.	.	4F	.	.	.	[2A	glo-	.	.	.	.
.	.	4E	.	.	.	.	.	.	.	.	.
=66	=66	=66	=66	=66	=66	=66	=66	=66	=66	=66	=66
0r	.	2F	.	0r	.	4A]	.	2d]	.	1r	.
.	.	.	.	.	.	4B-	.	.	.	.	.
.	.	2E	.	.	.	2c	.	2e	.	.	.
.	.	1D	-a,	.	.	2d	.	2f	.	2r	.
.	.	.	.	.	.	2D	-ri-	2d	.	[2a	glo-
=67	=67	=67	=67	=67	=67	=67	=67	=67	=67	=67	=67
0r	.	1r	.	0r	.	2.A	-a	1e	tu-	4a]	.
.	.	.	.	.	.	.	.	.	.	4b-	.
.	.	.	.	.	.	.	.	.	.	2cc	.
.	.	.	.	.	.	8GL	.	.	.	.	.
.	.	.	.	.	.	8AJ	.	.	.	.	.
.	.	2r	.	.	.	2B-	.	[1d	-a,	2dd	.
.	.	[2D	glo-	.	.	2A	.	.	.	2d	-ri-
=68	=68	=68	=68	=68	=68	=68	=68	=68	=68	=68	=68
0r	.	4D]	.	0r	.	2F	.	1d]	.	2.a	-a
.	.	4E	.	.	.	.	.	.	.	.	.
.	.	2F	.	.	.	2A	.	.	.	.	.
.	.	.	.	.	.	.	.	.	.	8gL	.
.	.	.	.	.	.	.	.	.	.	8aJ	.
.	.	2G	.	.	.	2G	.	2r	.	2b-	.
.	.	2GG	-ri-	.	.	2B-	.	[2d	glo-	2g	.
=69	=69	=69	=69	=69	=69	=69	=69	=69	=69	=69	=69
0r	.	1D	-a	0r	.	1A	.	4d]	.	2f	.
.	.	.	.	.	.	.	.	4e	.	.	.
.	.	.	.	.	.	.	.	2f	.	2a	tu-
.	.	2r	.	.	.	2G	.	2g	.	2b-	.
.	.	2C	tu-	.	.	2c	tu-	2G	-ri-	2cc	.
=70	=70	=70	=70	=70	=70	=70	=70	=70	=70	=70	=70
0r	.	2D	.	0r	.	2A	.	1d	-a	2f	.
.	.	2BB-	.	.	.	2B-	.	.	.	1b-	.
.	.	1F	.	.	.	1c	-a,	2r	.	.	.
.	.	.	.	.	.	.	.	[2f	tu-	2a	.
=71	=71	=71	=71	=71	=71	=71	=71	=71	=71	=71	=71
0r	.	2BB-	-a,	0r	.	1r	.	4f]	.	0b-	-a,
.	.	.	.	.	.	.	.	4e	.	.	.
.	.	2.B-	tu-	.	.	.	.	4d	.	.	.
.	.	.	.	.	.	.	.	4c	.	.	.
.	.	.	.	.	.	[1B-	glo-	2B-	.	.	.
.	.	4A	.	.	.	.	.	.	.	.	.
.	.	4G	.	.	.	.	.	[2d	.	.	.
.	.	4F	.	.	.	.	.	.	.	.	.
=72	=72	=72	=72	=72	=72	=72	=72	=72	=72	=72	=72
0r	.	1G	.	0r	.	1B-]	.	2d]	.	0r	.
.	.	.	.	.	.	.	.	2B-	.	.	.
.	.	2F	.	.	.	1A	-ri-	2c	.	.	.
.	.	2D	.	.	.	.	.	2d	.	.	.
=73	=73	=73	=73	=73	=73	=73	=73	=73	=73	=73	=73
0r	.	2E-	.	0r	.	1G	-a	2B-	.	0r	.
.	.	2C	.	.	.	.	.	1c	.	.	.
.	.	1D	.	.	.	1F	tu-	.	.	.	.
.	.	.	.	.	.	.	.	2B-	.	.	.
=74	=74	=74	=74	=74	=74	=74	=74	=74	=74	=74	=74
0r	.	2.C	.	0r	.	[0G	-a,	2c	-a,	1r	.
.	.	.	.	.	.	.	.	1e-	glo-	.	.
.	.	4BB-	.	.	.	.	.	.	.	.	.
.	.	1GG	-a,	.	.	.	.	.	.	[1b-	glo-
.	.	.	.	.	.	.	.	2d	-ri-	.	.
=75	=75	=75	=75	=75	=75	=75	=75	=75	=75	=75	=75
0r	.	2r	.	0r	.	1G]	.	4B-	-a	1b-]	.
.	.	.	.	.	.	.	.	4c	.	.	.
.	.	2G	glo-	.	.	.	.	4d	.	.	.
.	.	.	.	.	.	.	.	4B-	.	.	.
.	.	2F	-ri-	.	.	2r	.	2c	.	1a	-ri-
.	.	2D	-a	.	.	2F	glo-	[2d	tu-	.	.
=76	=76	=76	=76	=76	=76	=76	=76	=76	=76	=76	=76
0r	.	1E	tu-	0r	.	1G	-ri-	2d]	.	1g	-a
.	.	.	.	.	.	.	.	2c	.	.	.
.	.	1D	.	.	.	1A	-a	4d	.	1f	tu-
.	.	.	.	.	.	.	.	4e	.	.	.
.	.	.	.	.	.	.	.	4f	.	.	.
.	.	.	.	.	.	.	.	4d	.	.	.
=77	=77	=77	=77	=77	=77	=77	=77	=77	=77	=77	=77
0r	.	1G	.	0r	.	1B-	tu-	2e	.	2g	-a,
.	.	.	.	.	.	.	.	1d	.	2.b-	tu-
.	.	1E-i	.	.	.	1G	.	.	.	.	.
.	.	.	.	.	.	.	.	.	.	4a	.
.	.	.	.	.	.	.	.	2c	.	[2g	.
=78	=78	=78	=78	=78	=78	=78	=78	=78	=78	=78	=78
0r	.	1D	.	0r	.	1A	.	[0dl	-a.	2g]	.
.	.	.	.	.	.	.	.	.	.	2f	.
.	.	[1GG	.	.	.	2G	.	.	.	2g	.
.	.	.	.	.	.	[2B-	.	.	.	2d	.
=79	=79	=79	=79	=79	=79	=79	=79	=79	=79	=79	=79
0r	.	1GG]	.	0r	.	2B-]	.	0d_	.	1.g	.
.	.	.	.	.	.	4A	.	.	.	.	.
.	.	.	.	.	.	4G	.	.	.	.	.
.	.	1r	.	.	.	1B-	.	.	.	.	.
.	.	.	.	.	.	.	.	.	.	4f	.
.	.	.	.	.	.	.	.	.	.	4e	.
=80	=80	=80	=80	=80	=80	=80	=80	=80	=80	=80	=80
0r	.	0Dl	-a.	0r	.	0Al	.	0d]	.	0fl	-a.
!!LO:LB:i:g=z
=81||	=81||	=81||	=81||	=81||	=81||	=81||	=81||	=81||	=81||	=81||	=81||
*>C	*>C	*>C	*>C	*>C	*>C	*>C	*>C	*>C	*>C	*>C	*>C
*clefF4	*	*clefF4	*	*clefGv2	*	*clefGv2	*	*clefGv2	*	*clefG2	*
*k[b-]	*	*k[b-]	*	*k[b-]	*	*k[b-]	*	*k[b-]	*	*k[b-]	*
*M3/1	*	*M3/1	*	*M3/1	*	*M3/1	*	*M3/1	*	*M3/1	*
*met(C|3)	*	*met(C|3)	*	*met(C|3)	*	*met(C|3)	*	*met(C|3)	*	*met(C|3)	*
!!section: Osanna
!!!OMD: Osanna
0.r	.	0.r	.	0.r	.	1G	-O-	1g	O-	0.r	.
.	.	.	.	.	.	1G	-san-	1g	-san-	.	.
.	.	.	.	.	.	1c	.	1e	.	.	.
=82	=82	=82	=82	=82	=82	=82	=82	=82	=82	=82	=82
0.r	.	0.r	.	0.r	.	0B-	.	0f	.	1dd	O-
.	.	.	.	.	.	.	.	.	.	1dd	-san-
.	.	.	.	.	.	1G	.	1g	.	1b-	.
=83	=83	=83	=83	=83	=83	=83	=83	=83	=83	=83	=83
0.r	.	0.r	.	0.r	.	0A	.	1f	.	0cc	.
.	.	.	.	.	.	.	.	1e	.	.	.
.	.	.	.	.	.	1B-	.	1d	.	1dd	.
=84	=84	=84	=84	=84	=84	=84	=84	=84	=84	=84	=84
0.r	.	0.r	.	0.r	.	1c	.	0g	.	1cc	.
.	.	.	.	.	.	0d	.	.	.	1b-	.
.	.	.	.	.	.	.	.	1f	.	1a	.
=85	=85	=85	=85	=85	=85	=85	=85	=85	=85	=85	=85
1GG	O-	1G	O-	0.r	.	1G	-na,	0.g	-na,	0b-	.
1GG	-san-	1G	-san-	.	.	1r	.	.	.	.	.
1C	.	1E	.	.	.	1G	o-	.	.	1cc	.
=86	=86	=86	=86	=86	=86	=86	=86	=86	=86	=86	=86
0BB-	.	0F	.	1d	O-	0.B-	-san-	0.r	.	0f	-na,
.	.	.	.	1d	-san-	.	.	.	.	.	.
1GG	.	1G	.	1B-	.	.	.	.	.	1r	.
=87	=87	=87	=87	=87	=87	=87	=87	=87	=87	=87	=87
0AA	.	1F	.	0c	.	1.A	.	0.r	.	0.r	.
.	.	1E	.	.	.	.	.	.	.	.	.
.	.	.	.	.	.	2G	.	.	.	.	.
1BB-	.	1D	.	1d	.	1F	.	.	.	.	.
=88	=88	=88	=88	=88	=88	=88	=88	=88	=88	=88	=88
1C	.	0G	.	1c	.	1E	.	0.r	.	1r	.
0D	.	.	.	1B-	.	0D	-na,	.	.	1r	.
.	.	1F	.	1A	-na,	.	.	.	.	1a	o-
=89	=89	=89	=89	=89	=89	=89	=89	=89	=89	=89	=89
0GG	-na,	0G	-na,	0.r	.	1G	o-	1g	o-	0b-	-san-
.	.	.	.	.	.	1B-	-san-	1g	-san-	.	.
1r	.	1r	.	.	.	1c	.	1e	.	1g	.
=90	=90	=90	=90	=90	=90	=90	=90	=90	=90	=90	=90
0.r	.	1r	.	0.r	.	1F	.	0f	.	2.a	.
.	.	.	.	.	.	.	.	.	.	4b-	.
.	.	0r	.	.	.	1A	.	.	.	2cc	.
.	.	.	.	.	.	.	.	.	.	2a	.
.	.	.	.	.	.	1G	.	1g	.	2.b-	.
.	.	.	.	.	.	.	.	.	.	4cc	.
=91	=91	=91	=91	=91	=91	=91	=91	=91	=91	=91	=91
0.r	.	0.r	.	1r	.	1B-	.	1.f	.	0dd	.
.	.	.	.	1r	.	0A	-na,	.	.	.	.
.	.	.	.	.	.	.	.	4e	.	.	.
.	.	.	.	.	.	.	.	4d	.	.	.
.	.	.	.	1A	o-	.	.	1e	.	1cc#i	.
=92	=92	=92	=92	=92	=92	=92	=92	=92	=92	=92	=92
1GG	o-	1G	o-	0B-	-san-	1r	.	0d	-na,	0dd	-na,
1BB-	-san-	1G	-san-	.	.	1r	.	.	.	.	.
1C	.	1E	.	1G	.	1c	o-	1r	.	1r	.
=93	=93	=93	=93	=93	=93	=93	=93	=93	=93	=93	=93
1FF	.	0F	.	2.A	.	1c	-san-	0.r	.	0.r	.
.	.	.	.	4B-	.	.	.	.	.	.	.
1AA	.	.	.	2c	.	1A	.	.	.	.	.
.	.	.	.	2A	.	.	.	.	.	.	.
1GG	.	1G	.	2.B-	.	1d	.	.	.	.	.
.	.	.	.	4c	.	.	.	.	.	.	.
=94	=94	=94	=94	=94	=94	=94	=94	=94	=94	=94	=94
1BB-	.	1.F	.	0d	.	1D	.	1r	.	1r	.
0AA	.	.	.	.	.	0A	.	1r	.	1r	.
.	.	4E	.	.	.	.	.	.	.	.	.
.	.	4D	.	.	.	.	.	.	.	.	.
.	.	1E	.	1c	-na,	.	.	1e	o-	1a	o-
=95	=95	=95	=95	=95	=95	=95	=95	=95	=95	=95	=95
0.D	-na,	0D	-na,	1d	o-	0F	.	0f	-san-	0a	-san-
.	.	.	.	1d	-san-	.	.	.	.	.	.
.	.	1GG	o-	1B-	.	[1G	.	1d	.	1b-	.
=96	=96	=96	=96	=96	=96	=96	=96	=96	=96	=96	=96
0.r	.	1C	-san-	0c	.	1G]	.	1e	.	1g	.
.	.	1AA	.	.	.	1A	.	1c	.	1cc	.
.	.	1BB-	.	1d	.	1F	-na,	[1f	.	1b-	.
=97	=97	=97	=97	=97	=97	=97	=97	=97	=97	=97	=97
0.r	.	1F	.	1c	.	0.r	.	1f]	.	0a	.
.	.	0G	.	0B-	.	.	.	1.d	.	.	.
.	.	.	.	.	.	.	.	.	.	1g	.
.	.	.	.	.	.	.	.	2e	.	.	.
=98	=98	=98	=98	=98	=98	=98	=98	=98	=98	=98	=98
1.F	o-	[0.F	-na,	0.A	-na,	1c	o-	0.f	-na,	1.a	.
.	.	.	.	.	.	1c	-san-	.	.	.	.
2E	-san-	.	.	.	.	.	.	.	.	2g	.
2D	.	.	.	.	.	1A	.	.	.	2f	.
2C	.	.	.	.	.	.	.	.	.	2e	.
=99	=99	=99	=99	=99	=99	=99	=99	=99	=99	=99	=99
1BB-	.	1F]	.	0.r	.	0B-	.	1r	.	1d	.
1GG	.	1G	o-	.	.	.	.	1r	.	1b-	.
1AA	.	1E	.	.	.	1c	.	1c	o-	1a	.
=100	=100	=100	=100	=100	=100	=100	=100	=100	=100	=100	=100
1BB-	.	1D	-san-	1r	.	1B-	.	1d	-san-	0g	.
1C	.	1E	.	1r	.	0A	.	1c	.	.	.
1D	.	1F	.	1A	o-	.	.	1A	.	1f#i	.
=101	=101	=101	=101	=101	=101	=101	=101	=101	=101	=101	=101
0GG	.	1D	.	1.B-	-san-	0.G	.	0d	.	1g	-na,
.	.	1BB-	.	.	.	.	.	.	.	1g	o-
.	.	.	.	2A	.	.	.	.	.	.	.
1r	.	1C	.	1G	.	.	.	1c	.	1e	-san-
=102	=102	=102	=102	=102	=102	=102	=102	=102	=102	=102	=102
0.r	.	0D	.	1F	.	0.r	.	1A	.	0f	.
.	.	.	.	1D	.	.	.	1f	.	.	.
.	.	1r	.	1E	.	.	.	1e	.	1g	.
=103	=103	=103	=103	=103	=103	=103	=103	=103	=103	=103	=103
0.r	.	0.r	.	1F	.	0.r	.	0d	.	1f	.
.	.	.	.	1G	.	.	.	.	.	0e	.
.	.	.	.	1A	.	.	.	1c#i	.	.	.
=104	=104	=104	=104	=104	=104	=104	=104	=104	=104	=104	=104
0D	-in	0.r	.	0.D	.	0F	-in	[0.d	.	0.d	.
1GG	ex-	.	.	.	.	1B-	ex-	.	.	.	.
=105	=105	=105	=105	=105	=105	=105	=105	=105	=105	=105	=105
1.G	-cel-	1r	.	1r	.	1G	.	0.d_	.	0.r	.
.	.	0D	-in	1r	.	0A	-cel-	.	.	.	.
2F	.	.	.	.	.	.	.	.	.	.	.
1F	.	.	.	1F	-in	.	.	.	.	.	.
=106	=106	=106	=106	=106	=106	=106	=106	=106	=106	=106	=106
1G	-sis,	1.GG	ex-	1B-	ex-	1G	-sis,	0.d_	.	0.r	.
1r	.	.	.	1G	.	1r	.	.	.	.	.
.	.	1G	-cel-	.	.	.	.	.	.	.	.
1D	in	.	.	1A	-cel-	1F	in	.	.	.	.
.	.	2F	.	.	.	.	.	.	.	.	.
=107	=107	=107	=107	=107	=107	=107	=107	=107	=107	=107	=107
1.GG	ex-	1.G	.	0G	-sis,	1B-	ex-	0.d]	.	1r	.
.	.	.	.	.	.	1G	.	.	.	1r	.
1G	-cel-	2GG	.	.	.	.	.	.	.	.	.
.	.	1D	.	1r	.	1A	-cel-	.	.	1dd	-in
2F	.	.	.	.	.	.	.	.	.	.	.
=108	=108	=108	=108	=108	=108	=108	=108	=108	=108	=108	=108
*M2/1	*	*M2/1	*	*M2/1	*	*M2/1	*	*M2/1	*	*M2/1	*
*met(C|)	*	*met(C|)	*	*met(C|)	*	*met(C|)	*	*met(C|)	*	*met(C|)	*
0G	.	0GG	-sis,	0G	in	1F	-sis,	1d	-in	2.dd	ex-
.	.	.	.	.	.	.	.	.	.	4cc	.
.	.	.	.	.	.	[1d	in	2r	.	2b-	.
.	.	.	.	.	.	.	.	[2g	ex-	2g	.
=109	=109	=109	=109	=109	=109	=109	=109	=109	=109	=109	=109
1D	-sis,	2r	.	[0A	ex-	1d]	.	2g]	.	1.a	.
.	.	2D	in	.	.	.	.	2f	.	.	.
2r	.	2C	.	.	.	2.A	ex-	2e	.	.	.
2D	in	2D	ex-	.	.	.	.	2f	-cel-	[2a	-cel-
.	.	.	.	.	.	4B-	.	.	.	.	.
=110	=110	=110	=110	=110	=110	=110	=110	=110	=110	=110	=110
2C	ex-	2AA	-cel-	0A]	.	2c	-cel-	2e	.	4a]	.
.	.	.	.	.	.	.	.	.	.	4g	.
2D	-cel-	2D	-sis,	.	.	2F	.	1d	.	2f	.
1AA	-sis,	2r	.	.	.	2r	.	.	.	1e	-sis,
.	.	2C	in	.	.	2A	-in	2c	.	.	.
=111	=111	=111	=111	=111	=111	=111	=111	=111	=111	=111	=111
2r	.	2BB-	.	[0G	-cel	2B-	.	2d	.	2r	.
2C	in	2C	ex-	.	.	2G	.	2e	.	2.g	ex-
2BB-	ex-	2GG	-cel-	.	.	2r	.	2d	.	.	.
.	.	.	.	.	.	.	.	.	.	4f	.
2C	-cel-	2C	-sis,	.	.	[2c	ex-	2c	.	2e	.
=112	=112	=112	=112	=112	=112	=112	=112	=112	=112	=112	=112
1GG	-sis,	2r	.	1G]	.	2c]	.	1d	.	2d	.
.	.	2BB-	in	.	.	2B-	.	.	.	2g	.
2r	.	2AA	.	[1F	.	2c	.	2A	.	2a	.
2BB-	in	2BB-	ex-	.	.	2d	.	[2f	.	2d	.
=113	=113	=113	=113	=113	=113	=113	=113	=113	=113	=113	=113
2AA	ex-	2FF	-cel-	0F]	.	2c	.	4f]	.	2a	.
.	.	.	.	.	.	.	.	4e	.	.	.
2BB-	-cel-	2BB-	.	.	.	1B-	-cel-	2d	.	2.f	.
1FF	.	1C	.	.	.	.	.	1c	.	.	.
.	.	.	.	.	.	.	.	.	.	4g	.
.	.	.	.	.	.	2A	.	.	.	2a	.
=114	=114	=114	=114	=114	=114	=114	=114	=114	=114	=114	=114
1BB-	.	1D	-sis,	0F	sis.	1B-	.	2B-	.	2d	-sis,
.	.	.	.	.	.	.	.	1f	.	1dd	in
1D	.	1r	.	.	.	2A	.	.	.	.	.
.	.	.	.	.	.	2B-	.	2d	.	2dd	ex-
=115	=115	=115	=115	=115	=115	=115	=115	=115	=115	=115	=115
1C	-sis,	1G	in	[0Gl	.	1c	.	1e	.	2.g	-cel-
.	.	.	.	.	.	.	.	.	.	4a	.
1r	.	2G	ex-	.	.	2B-	.	2d	.	2b-	.
.	.	[2E-	-cel-	.	.	[2e-	.	[2g	.	2g	.
=116	=116	=116	=116	=116	=116	=116	=116	=116	=116	=116	=116
1r	.	4E-]	.	0G_	.	4e-]	.	4g]	.	1b-	.
.	.	4F	.	.	.	4d	.	4f	.	.	.
.	.	2G	.	.	.	1d	.	2d	.	.	.
1G	in	1C	-sis,	.	.	.	.	1e-i	.	1cc	.
.	.	.	.	.	.	2c	.	.	.	.	.
=117	=117	=117	=117	=117	=117	=117	=117	=117	=117	=117	=117
2G	ex-	2r	.	0G_	.	2d	.	2d	.	2b-	.
2.E-	-cel-	1C	in	.	.	2.G	.	2.g	.	2.ee-	.
4F	.	.	.	.	.	4A	.	4f	.	4dd	.
2G	.	2BB-	ex-	.	.	2B-	.	2d	.	[2dd	.
=118	=118	=118	=118	=118	=118	=118	=118	=118	=118	=118	=118
1C	-sis,	1C	-cel-	0G_	.	2G	.	1e-i	.	2dd]	.
.	.	.	.	.	.	1c	.	.	.	2cc	.
2r	.	1GG	-sis,	.	.	.	.	1d	.	1dd	.
2G	in	.	.	.	.	2B-	.	.	.	.	.
=119	=119	=119	=119	=119	=119	=119	=119	=119	=119	=119	=119
4G	ex-	2C	in	0G_	.	1c	.	0e-i	.	2cc	.
4F	.	.	.	.	.	.	.	.	.	.	.
4E	.	2.C	ex-	.	.	.	.	.	.	2g	.
4D	.	.	.	.	.	.	.	.	.	.	.
2.C	-cel-	.	.	.	.	2.G	.	.	.	1cc	.
.	.	4D	.	.	.	.	.	.	.	.	.
.	.	4E	.	.	.	.	.	.	.	.	.
4BB-	.	4F	.	.	.	4A	.	.	.	.	.
=120	=120	=120	=120	=120	=120	=120	=120	=120	=120	=120	=120
[0GGl	.	2G	.	0G_	.	1.B-	.	[0dl	-sis.	0b-	-sis.
.	.	2D	.	.	.	.	.	.	.	.	.
.	.	2.G	-cel-	.	.	.	.	.	.	.	.
.	.	.	.	.	.	2G	.	.	.	.	.
.	.	4F	.	.	.	.	.	.	.	.	.
=121	=121	=121	=121	=121	=121	=121	=121	=121	=121	=121	=121
0GG]	.	0Dl	.	0G]	.	0Gl	-sis.	0d]	.	0b-l	.
!!LO:TX:Z=12:rj:i:t=fine
!!LO:LB:i:g=z
=122||	=122||	=122||	=122||	=122||	=122||	=122||	=122||	=122||	=122||	=122||	=122||
*>D	*>D	*>D	*>D	*>D	*>D	*>D	*>D	*>D	*>D	*>D	*>D
*clefF4	*	*clefF4	*	*clefGv2	*	*clefGv2	*	*clefGv2	*	*clefG2	*
*k[b-]	*	*k[b-]	*	*k[b-]	*	*k[b-]	*	*k[b-]	*	*k[b-]	*
*M2/1	*	*M2/1	*	*M2/1	*	*M2/1	*	*M2/1	*	*M2/1	*
*met(C|)	*	*met(C|)	*	*met(C|)	*	*met(C|)	*	*met(C|)	*	*met(C|)	*
!!section: Benedictus
!!!OMD: Benedictus
0r	.	0r	.	0r	.	0r	.	0r	.	1a	Be-
.	.	.	.	.	.	.	.	.	.	2a	-ne-
.	.	.	.	.	.	.	.	.	.	[2f	-di-
=123	=123	=123	=123	=123	=123	=123	=123	=123	=123	=123	=123
0r	.	0r	.	0r	.	0r	.	1d	Be-	4f]	.
.	.	.	.	.	.	.	.	.	.	4g	.
.	.	.	.	.	.	.	.	.	.	2a	.
.	.	.	.	.	.	.	.	2d	-ne-	1d	-ctus,
.	.	.	.	.	.	.	.	[2B-	-di-	.	.
=124	=124	=124	=124	=124	=124	=124	=124	=124	=124	=124	=124
0r	.	0r	.	0r	.	0r	.	4B-]	.	2r	.
.	.	.	.	.	.	.	.	4c	.	.	.
.	.	.	.	.	.	.	.	2d	.	2f	be-
.	.	.	.	.	.	.	.	1G	-ctus,	2g	-ne-
.	.	.	.	.	.	.	.	.	.	2b-	.
=125	=125	=125	=125	=125	=125	=125	=125	=125	=125	=125	=125
0r	.	0r	.	0r	.	1A	Be-	2.c	be-	2a	.
.	.	.	.	.	.	.	.	.	.	2.cc	-di-
.	.	.	.	.	.	.	.	4d	.	.	.
.	.	.	.	.	.	2A	-ne-	2e	.	.	.
.	.	.	.	.	.	.	.	.	.	4b-	.
.	.	.	.	.	.	[2F	-di-	[2f	-ne-	[2a	.
=126	=126	=126	=126	=126	=126	=126	=126	=126	=126	=126	=126
0r	.	1r	.	0r	.	4F]	.	4f]	.	4a]	.
.	.	.	.	.	.	4G	.	4e	.	4g	.
.	.	.	.	.	.	2A	.	2c	.	2e	.
.	.	1D	-Be-	.	.	1D	-ctus,	2.d	-di-	1f	.
.	.	.	.	.	.	.	.	4c	.	.	.
=127	=127	=127	=127	=127	=127	=127	=127	=127	=127	=127	=127
0r	.	2D	-ne-	0r	.	2r	.	2A	.	1.f	.
.	.	2.BB-	-di-	.	.	2.d	be-	2.B-	.	.	.
.	.	4C	.	.	.	4c	.	4A	.	.	.
.	.	2D	.	.	.	2A	-ne-	2F	.	2d	.
=128	=128	=128	=128	=128	=128	=128	=128	=128	=128	=128	=128
0r	.	1GG	-ctus,	0r	.	2B-	-di-	2G	.	2d	.
.	.	.	.	.	.	2G	.	2E	.	1g	.
.	.	1r	.	.	.	1A	.	1D	-ctus,	.	.
.	.	.	.	.	.	.	.	.	.	2f#i	.
=129	=129	=129	=129	=129	=129	=129	=129	=129	=129	=129	=129
0r	.	0r	.	0r	.	0G	.	1d	be-	[0g	-ctus,
.	.	.	.	.	.	.	.	2d	-ne-	.	.
.	.	.	.	.	.	.	.	[2B-	-di-	.	.
=130	=130	=130	=130	=130	=130	=130	=130	=130	=130	=130	=130
0r	.	1G	be-	0r	.	0B-	-be-	4B-]	.	1g]	.
.	.	.	.	.	.	.	.	4c	.	.	.
.	.	.	.	.	.	.	.	2d	.	.	.
.	.	2G	-ne-	.	.	.	.	2G	.	2r	.
.	.	[2E-	-di-	.	.	.	.	[2e-	.	[2g	be-
=131	=131	=131	=131	=131	=131	=131	=131	=131	=131	=131	=131
0r	.	4E-]	.	0r	.	1B-	-ne-	4e-]	.	4g]	.
.	.	4F	.	.	.	.	.	4d	.	4f	.
.	.	2G	.	.	.	.	.	1d	.	2d	-ne-
.	.	1C	.	.	.	1G	-di-	.	.	1e-i	-di-
.	.	.	.	.	.	.	.	2c	.	.	.
=132	=132	=132	=132	=132	=132	=132	=132	=132	=132	=132	=132
0r	.	1G	-ctus,	0r	.	1.B-	.	[0d	-ctus	1d	-ctus,
.	.	1r	.	.	.	.	.	.	.	2r	.
.	.	.	.	.	.	4A	.	.	.	2d	be-
.	.	.	.	.	.	4G	.	.	.	.	.
=133	=133	=133	=133	=133	=133	=133	=133	=133	=133	=133	=133
0r	.	1D	be-	0r	.	2A	.	1d]	.	2.f	-ne-
.	.	.	.	.	.	2B-	.	.	.	.	.
.	.	.	.	.	.	.	.	.	.	4g	.
.	.	2D	-ne-	.	.	2A	.	1r	.	2a	.
.	.	[2BB-	-di-	.	.	[2d	.	.	.	[2b-	.
=134	=134	=134	=134	=134	=134	=134	=134	=134	=134	=134	=134
0r	.	4BB-]	.	0r	.	4d]	.	1d	qui	4b-]	.
.	.	4C	.	.	.	4c	.	.	.	4a	.
.	.	2D	.	.	.	2A	.	.	.	1a	-di-
.	.	1GG	.	.	.	1B-	.	1d	ve-	.	.
.	.	.	.	.	.	.	.	.	.	2g	.
=135	=135	=135	=135	=135	=135	=135	=135	=135	=135	=135	=135
0r	.	1r	.	0r	.	[0A	-ctus	1c	-nit	[0a	.
.	.	1D	-qui	.	.	.	.	2d	in	.	.
.	.	.	.	.	.	.	.	[2f	no-	.	.
=136	=136	=136	=136	=136	=136	=136	=136	=136	=136	=136	=136
0r	.	1D	ve-	0r	.	1A]	.	2f]	.	1a]	.
.	.	.	.	.	.	.	.	4e	.	.	.
.	.	.	.	.	.	.	.	4d	.	.	.
.	.	1C	-nit	.	.	1r	.	2e	.	1r	.
.	.	.	.	.	.	.	.	2g	.	.	.
=137	=137	=137	=137	=137	=137	=137	=137	=137	=137	=137	=137
0r	.	2D	in	0r	.	0r	.	2.f	.	0r	.
.	.	1F	no-	.	.	.	.	.	.	.	.
.	.	.	.	.	.	.	.	8eL	.	.	.
.	.	.	.	.	.	.	.	8dJ	.	.	.
.	.	.	.	.	.	.	.	2c	.	.	.
.	.	4E	.	.	.	.	.	2d	.	.	.
.	.	4D	.	.	.	.	.	.	.	.	.
=138	=138	=138	=138	=138	=138	=138	=138	=138	=138	=138	=138
0r	.	2E	.	0r	.	0r	.	2G	.	0r	.
.	.	1G	.	.	.	.	.	2.B-	.	.	.
.	.	.	.	.	.	.	.	4A	.	.	.
.	.	2F	.	.	.	.	.	[2d	.	.	.
=139	=139	=139	=139	=139	=139	=139	=139	=139	=139	=139	=139
0r	.	1E	-mi-	0r	.	1r	.	2d]	.	0r	.
.	.	.	.	.	.	.	.	2c#i	-mi-	.	.
.	.	1D	-ne	.	.	1A	qui	1d	-ne	.	.
=140	=140	=140	=140	=140	=140	=140	=140	=140	=140	=140	=140
0r	.	2C	Do-	0r	.	1A	ve-	2e	.	0r	.
.	.	2D	.	.	.	.	.	2f	.	.	.
.	.	2BB-	.	.	.	1G	-nit	2d	.	.	.
.	.	2C	.	.	.	.	.	2e	.	.	.
=141	=141	=141	=141	=141	=141	=141	=141	=141	=141	=141	=141
0r	.	2AA	.	0r	.	2.A	in	2.c	Do-	1a	-qui
.	.	1A	.	.	.	.	.	.	.	.	.
.	.	.	.	.	.	4B-	.	4d	.	.	.
.	.	.	.	.	.	2c	.	2e	.	1a	ve-
.	.	2F	.	.	.	[2d	no-	[2f	.	.	.
=142	=142	=142	=142	=142	=142	=142	=142	=142	=142	=142	=142
0r	.	1G	.	0r	.	2d]	.	2f]	.	1g	-nit
.	.	.	.	.	.	2B-	.	2e	-mi-	.	.
.	.	1F	.	.	.	1c	.	1f	-ni,	1a	in
=143	=143	=143	=143	=143	=143	=143	=143	=143	=143	=143	=143
0r	.	2.BB-	.	0r	.	1.d	.	2r	.	1b-	no-
.	.	.	.	.	.	.	.	1f	Do-	.	.
.	.	4C	.	.	.	.	.	.	.	.	.
.	.	4D	.	.	.	.	.	.	.	[1a	-mi-
.	.	4E	.	.	.	.	.	.	.	.	.
.	.	[2F	.	.	.	4c	.	4e	.	.	.
.	.	.	.	.	.	4B-	.	4d	.	.	.
=144	=144	=144	=144	=144	=144	=144	=144	=144	=144	=144	=144
0r	.	2F]	.	0r	.	2A	.	2c	.	2a]	.
.	.	2D	-mi-	.	.	2B-	.	1d	.	2f	.
.	.	1E-	-ni,	.	.	2.G	-mi-	.	.	1g	.
.	.	.	.	.	.	.	.	2c	-mi-	.	.
.	.	.	.	.	.	4A	.	.	.	.	.
=145	=145	=145	=145	=145	=145	=145	=145	=145	=145	=145	=145
0r	.	2r	.	0r	.	1B-	-ne,	[0d	-ni,	0f	-ne,
.	.	2.BB-	Do-	.	.	.	.	.	.	.	.
.	.	.	.	.	.	2r	.	.	.	.	.
.	.	4C	.	.	.	.	.	.	.	.	.
.	.	4D	.	.	.	2A	in	.	.	.	.
.	.	4E	.	.	.	.	.	.	.	.	.
=146	=146	=146	=146	=146	=146	=146	=146	=146	=146	=146	=146
0r	.	2F	.	0r	.	2A	no-	0d_	.	1r	.
.	.	1G	.	.	.	2G	-mi-	.	.	.	.
.	.	.	.	.	.	1A	-ne	.	.	2r	.
.	.	2F	.	.	.	.	.	.	.	2a	in
=147	=147	=147	=147	=147	=147	=147	=147	=147	=147	=147	=147
0r	.	2G	.	0r	.	1B-	Do-	0d_	.	2a	no-
.	.	2GG	-mi-	.	.	.	.	.	.	2g	-mi-
.	.	1D	-ni,	.	.	2A	.	.	.	1a	-ne
.	.	.	.	.	.	2F	.	.	.	.	.
=148	=148	=148	=148	=148	=148	=148	=148	=148	=148	=148	=148
0r	.	1r	.	0r	.	1G	.	0d]	.	1b-	Do-
.	.	2r	.	.	.	2F	-mi-	.	.	2.a	.
.	.	2A	in	.	.	2D	-ni,	.	.	.	.
.	.	.	.	.	.	.	.	.	.	4g	.
=149	=149	=149	=149	=149	=149	=149	=149	=149	=149	=149	=149
0r	.	2A	no-	0r	.	2r	.	0r	.	2f	.
.	.	2G	-mi-	.	.	2d	in	.	.	2g	-mi-
.	.	1A	-ne	.	.	2d	no-	.	.	2e	-ni,
.	.	.	.	.	.	2c	-mi-	.	.	2a	in
=150	=150	=150	=150	=150	=150	=150	=150	=150	=150	=150	=150
0r	.	1B-	Do-	0r	.	1d	-ne	0r	.	2a	no-
.	.	.	.	.	.	.	.	.	.	2g	-mi-
.	.	2A	.	.	.	2e	Do-	.	.	1a	-ne
.	.	2F	.	.	.	[2f	.	.	.	.	.
=151	=151	=151	=151	=151	=151	=151	=151	=151	=151	=151	=151
0r	.	1G	.	0r	.	4f]	.	1r	.	1b-	Do-
.	.	.	.	.	.	4d	.	.	.	.	.
.	.	.	.	.	.	2e	.	.	.	.	.
.	.	1F	.	.	.	2A	.	2r	.	2a	.
.	.	.	.	.	.	[2d	.	2A	in	2f	.
=152	=152	=152	=152	=152	=152	=152	=152	=152	=152	=152	=152
0r	.	1E	-mi-	0r	.	2d]	.	2A	no-	1g	-mi-
.	.	.	.	.	.	2c#i	-mi-	2G	-mi-	.	.
.	.	1D	-ni,	.	.	[1d	-ni,	1A	-ne	[1f	-ni,
=153	=153	=153	=153	=153	=153	=153	=153	=153	=153	=153	=153
0r	.	2r	.	0r	.	1d]	.	1B-	Do-	1f]	.
.	.	2BB-	Do-	.	.	.	.	.	.	.	.
.	.	2C	.	.	.	1r	.	2A	.	1r	.
.	.	[2D	.	.	.	.	.	2F	.	.	.
=154	=154	=154	=154	=154	=154	=154	=154	=154	=154	=154	=154
0r	.	2D]	.	0r	.	0r	.	1G	.	0r	.
.	.	2C	.	.	.	.	.	.	.	.	.
.	.	2D	.	.	.	.	.	4F	.	.	.
.	.	.	.	.	.	.	.	4G	.	.	.
.	.	[2F	.	.	.	.	.	4A	.	.	.
.	.	.	.	.	.	.	.	4B-	.	.	.
=155	=155	=155	=155	=155	=155	=155	=155	=155	=155	=155	=155
0r	.	4F]	.	0r	.	0r	.	2c	.	0r	.
.	.	4E	.	.	.	.	.	.	.	.	.
.	.	4D	.	.	.	.	.	2.d	.	.	.
.	.	4C	.	.	.	.	.	.	.	.	.
.	.	2BB-	.	.	.	.	.	.	.	.	.
.	.	.	.	.	.	.	.	4c	.	.	.
.	.	2D	.	.	.	.	.	[2B-	.	.	.
=156	=156	=156	=156	=156	=156	=156	=156	=156	=156	=156	=156
0r	.	1C	-mi-	0r	.	1r	.	2B-]	.	1r	.
.	.	.	.	.	.	.	.	2A	-mi-	.	.
.	.	[1BB-	-ni,	.	.	2r	.	[1B-	-ni,	2r	.
.	.	.	.	.	.	[2f	Do-	.	.	[2dd	Do-
=157	=157	=157	=157	=157	=157	=157	=157	=157	=157	=157	=157
0r	.	1BB-]	.	0r	.	4f]	.	1B-]	.	4dd]	.
.	.	.	.	.	.	4e	.	.	.	4cc	.
.	.	.	.	.	.	1d	.	.	.	1b-	.
.	.	1r	.	.	.	.	.	1r	.	.	.
.	.	.	.	.	.	4c	.	.	.	4a	.
.	.	.	.	.	.	4B-	.	.	.	4g	.
=158	=158	=158	=158	=158	=158	=158	=158	=158	=158	=158	=158
0r	.	2r	.	0r	.	2A	.	2r	.	1f	.
.	.	2.B-	Do-	.	.	2B-	.	2.d	Do-	.	.
.	.	.	.	.	.	1G	.	.	.	[1g	.
.	.	4A	.	.	.	.	.	4c	.	.	.
.	.	[2G	.	.	.	.	.	[2B-	.	.	.
=159	=159	=159	=159	=159	=159	=159	=159	=159	=159	=159	=159
0r	.	2G]	.	0r	.	1.d	.	2B-]	.	1g]	.
.	.	4F	.	.	.	.	.	4A	.	.	.
.	.	4E	.	.	.	.	.	4G	.	.	.
.	.	2D	.	.	.	.	.	2A	.	2f	.
.	.	[2G	.	.	.	2d	-mi-	2B-	-mi-	[2b-	.
=160	=160	=160	=160	=160	=160	=160	=160	=160	=160	=160	=160
0r	.	4G]	.	0r	.	[0B-	-ni,	1G	-ni,	4b-]	.
.	.	4F	.	.	.	.	.	.	.	4a	.
.	.	1E-	.	.	.	.	.	.	.	1g	.
.	.	.	.	.	.	.	.	2r	.	.	.
.	.	4D	.	.	.	.	.	[2f	Do-	4f	.
.	.	4C	.	.	.	.	.	.	.	4e	.
=161	=161	=161	=161	=161	=161	=161	=161	=161	=161	=161	=161
0r	.	2.BB-	.	0r	.	1B-]	.	4f]	.	2f	.
.	.	.	.	.	.	.	.	4e	.	.	.
.	.	.	.	.	.	.	.	1d	-mi-	1b-	.
.	.	4C	.	.	.	.	.	.	.	.	.
.	.	[1D	.	.	.	1r	.	.	.	.	.
.	.	.	.	.	.	.	.	4c	.	4a	.
.	.	.	.	.	.	.	.	4B-	.	4g	.
=162	=162	=162	=162	=162	=162	=162	=162	=162	=162	=162	=162
0r	.	2D]	.	0r	.	2r	.	2A	.	2f	.
.	.	2BB-	.	.	.	2B-	in	2d	-in	1g	.
.	.	2C	.	.	.	2A	no-	2c	no-	.	.
.	.	2D	-mi-	.	.	2A	-mi-	2A	-mi-	2f#i	-mi-
=163	=163	=163	=163	=163	=163	=163	=163	=163	=163	=163	=163
0r	.	1GG	-ni,	0r	.	2G	-ne	2B-	-ne	[0gl	-ni.&
.	.	.	.	.	.	2.B-	Do-	2.d	Do-	.	.
.	.	2r	.	.	.	.	.	.	.	.	.
.	.	.	.	.	.	4A	.	4c	.	.	.
.	.	2GG	Do-	.	.	4G	.	4B-	.	.	.
.	.	.	.	.	.	4F	.	4A	.	.	.
=164	=164	=164	=164	=164	=164	=164	=164	=164	=164	=164	=164
0r	.	2C	.	0r	.	2E	.	1.G	.	0g_	.
.	.	2BB-	.	.	.	2D	.	.	.	.	.
.	.	1C	-mi-	.	.	2.E	-mi-	.	.	.	.
.	.	.	.	.	.	.	.	2A	-mi-	.	.
.	.	.	.	.	.	4F	.	.	.	.	.
=165	=165	=165	=165	=165	=165	=165	=165	=165	=165	=165	=165
0r	.	0GGl	-ni.	0r	.	0Gl	-ni.	0B-l	-ni.	0g]	.
!!LO:TX:i:Z=12:rj:t=Osanna ut supra
=||	=||	=||	=||	=||	=||	=||	=||	=||	=||	=||	=||
*-	*-	*-	*-	*-	*-	*-	*-	*-	*-	*-	*-
!!!RDF**kern: l=long note in original notation
!!!RDF**kern: i=editorial accidental
!!!ENC: Stephanie P. Schlagel 2016/05/23
!!!END: 2016/05/23/
!!!EED: Jesse Rodin
!!!EEV: 2016/05/30/
!!!ONB: Translated from MusicXML and edited on 2016/05/30/ by Craig Sapp
!!muse2ps: T^@{OPR}^u^@{ONM}{. }@{OTL}^C^@{COM}^i2I150v100,100,100,100,100,120Q16z18c80
